X:1
T:The Highlandman Who Kissed his Grannie
R:Reel
S:Tommy Peoples, via The Boys of the Lough
Z:Philippe Varlet  irtrad-l 2001-12-24
M:4/4
L:1/8
%Q:240
K:G
cgge gcge | cgge dBGB | cgge gcge | afge dBGB :||
ce A/A/A ABcA | ceAe dBGB | ce A/A/A ABcd | egge dBGB :||
